**kern	**kern	**dynam
*part1	*part1	*part1
*staff2	*staff1	*
*I"Piano	*	*
*clefF4	*clefG2	*
*k[f#c#]	*k[f#c#]	*
=1	=1	=1
*^	*	*
2A	4D	(4B	.
.	8EL	8c#L	.
.	8F#J	8dJ)	.
=	=	=	=
4A	4E	4c#	.
4G#X	4E	8BL	.
.	.	8eJ	.
=	=	=	=
4A	4F#	4d	.
[4B	[4GG#X [4E	[4d [4e	>
=	=	=	=
4B]	4GG#] 4E]	4d] 4e]	.
4A	4AA 4E	4c#	]
=	=	=	=
(24DLL	[4D	4B 4b	.
24E	.	.	.
24E#X	.	.	.
24F#	.	.	.
24G	.	.	.
24G#XJJ	.	.	.
[4A)	4D]	8c#L 8cc#	.
.	.	8dJ 8dd	.
=	=	=	=
*	*	*^	*
4A]	4E	4.cc#	4c#	.
4G#X	4EE	.	4d	.
.	.	8b	.	.
*v	*v	*	*	*
*	*v	*v	*
=||	=||	=||
*M4/4	*M4/4	*
*met(c)	*met(c)	*
(24AAALL	8A 8c# 8a	pp
24BBB-X	.	.
24BBBn	.	.
24CCn	8r	.
24CC#X	.	.
24DDJJ	.	.
24DD#XLL	8A 8a	.
24EE	.	.
24FFn	.	.
24FF#X	8r	.
24GG	.	.
24GG#XJJ	.	.
26AALL	8A 8a	.
26BB-X	.	.
26BBn	.	.
26Cn	.	.
.	8r	.
26C#X	.	.
26D	.	.
26D#X	.	.
.	8A 8a	.
26E	.	.
26Fn	.	.
26F#X	.	.
.	8r	.
26G	.	.
26G#X	.	.
26AJJ)	.	.
=	=	=
*-	*-	*-
!!!system-decoration: {(s1,s2)}
